src/assets/bold/lm-mobile-phone-bold.svg

<svg width="24" height="24" viewBox="0 0 24 24" fill="none" xmlns="http://www.w3.org/2000/svg" fill="currentColor">
<path d="M8 3.75C7.66848 3.75 7.35054 3.8817 7.11612 4.11612C6.8817 4.35054 6.75 4.66848 6.75 5V19C6.75 19.3315 6.8817 19.6495 7.11612 19.8839C7.35054 20.1183 7.66848 20.25 8 20.25H16C16.3315 20.25 16.6495 20.1183 16.8839 19.8839C17.1183 19.6495 17.25 19.3315 17.25 19V5C17.25 4.66848 17.1183 4.35054 16.8839 4.11612C16.6495 3.8817 16.3315 3.75 16 3.75H13.7073C13.735 3.82819 13.75 3.91234 13.75 4C13.75 4.41421 13.4142 4.75 13 4.75H11C10.5858 4.75 10.25 4.41421 10.25 4C10.25 3.91234 10.265 3.82819 10.2927 3.75H8ZM6.05546 3.05546C6.57118 2.53973 7.27065 2.25 8 2.25H16C16.7293 2.25 17.4288 2.53973 17.9445 3.05546C18.4603 3.57118 18.75 4.27065 18.75 5V19C18.75 19.7293 18.4603 20.4288 17.9445 20.9445C17.4288 21.4603 16.7293 21.75 16 21.75H8C7.27065 21.75 6.57118 21.4603 6.05546 20.9445C5.53973 20.4288 5.25 19.7293 5.25 19V5C5.25 4.27065 5.53973 3.57118 6.05546 3.05546ZM12 16.25C12.4142 16.25 12.75 16.5858 12.75 17V17.01C12.75 17.4242 12.4142 17.76 12 17.76C11.5858 17.76 11.25 17.4242 11.25 17.01V17C11.25 16.5858 11.5858 16.25 12 16.25Z" fill="black"/>
</svg>

<svg xmlns="http://www.w3.org/2000/svg" width="24" height="24" fill="currentColor" viewBox="0 0 24 24">
  <path d="M8 3.75A1.25 1.25 0 0 0 6.75 5v14A1.25 1.25 0 0 0 8 20.25h8A1.25 1.25 0 0 0 17.25 19V5A1.25 1.25 0 0 0 16 3.75h-2.293a.75.75 0 0 1-.707 1h-2a.75.75 0 0 1-.707-1H8Zm-1.945-.695A2.75 2.75 0 0 1 8 2.25h8A2.75 2.75 0 0 1 18.75 5v14A2.75 2.75 0 0 1 16 21.75H8A2.75 2.75 0 0 1 5.25 19V5c0-.73.29-1.429.805-1.945ZM12 16.25a.75.75 0 0 1 .75.75v.01a.75.75 0 0 1-1.5 0V17a.75.75 0 0 1 .75-.75Z"/>
</svg>
